X: 10621
Q: "Energetically."
M: C|
L: 1/8
K: C
c2c>c c2ed | dcBA G2G>G |\
(AG)(AB) (cB)cd | e2(fd) e3d |\
c2(EF) GGAB | c2(EF) G2e2 |\
fedc g2Bc |
d>e d/c/B/A/ G2 |: d>d |\
d2(Bc) d2(gf) | edcd e3d |\
c>BAe cA2B | c2G>F EC2G |\


